X: 2034
Q: "Reel."
M: C
L: 1/8
K: A
|:\
[2 f/f/f (ag) fefg :| agab aeea |
fgag Tf2(ed) |\
cefg agfa | eaca TB2(AF) |\
cefg agfa | ecac TB2(AF) |]


